images/top/top-item-3.svg

<svg width="70" height="70" viewBox="0 0 70 70" fill="none" xmlns="http://www.w3.org/2000/svg">
<path d="M24.5 4.375L23.7993 4.72705L23.6609 5.4978L24.1958 6.07031L24.5 6.125L25.2007 5.77295L25.3391 5.0022L24.8042 4.42969L24.5 4.375ZM31.5 4.375L30.7993 4.72705L30.6609 5.4978L31.1958 6.07031L31.5 6.125L32.2007 5.77295L32.3391 5.0022L31.8042 4.42969L31.5 4.375ZM38.5 4.375L37.7993 4.72705L37.6609 5.4978L38.1958 6.07031L38.5 6.125L39.2007 5.77295L39.3391 5.0022L38.8042 4.42969L38.5 4.375ZM44.625 4.375L43.9243 4.72705L43.7859 5.4978L44.3208 6.07031L44.625 6.125L45.3257 5.77295L45.4641 5.0022L44.9292 4.42969L44.625 4.375ZM23.3738 7.68701L22.6731 8.03735L22.5347 8.80981L23.0696 9.38232L23.3738 9.43701L24.0745 9.08496L24.2129 8.3125L23.678 7.73999L23.3738 7.68701ZM30.3738 7.68701L29.6731 8.03735L29.5347 8.80981L30.0696 9.38232L30.3738 9.43701L31.0745 9.08496L31.2129 8.3125L30.678 7.73999L30.3738 7.68701ZM37.3738 7.68701L36.6731 8.03735L36.5347 8.80981L37.0696 9.38232L37.3738 9.43701L38.0745 9.08496L38.2129 8.3125L37.678 7.73999L37.3738 7.68701ZM43.4988 7.68701L42.7981 8.03735L42.6597 8.80981L43.1946 9.38232L43.4988 9.43701L44.1995 9.08496L44.3379 8.3125L43.803 7.73999L43.4988 7.68701ZM23.0354 11.1409L22.333 11.4912L22.1963 12.2637L22.7312 12.8362L23.0354 12.8909L23.7361 12.5388L23.8745 11.7681L23.3379 11.1956L23.0354 11.1409ZM30.0354 11.1409L29.333 11.4912L29.1963 12.2637L29.7312 12.8362L30.0354 12.8909L30.7361 12.5388L30.8745 11.7681L30.3379 11.1956L30.0354 11.1409ZM37.0354 11.1409L36.333 11.4912L36.1963 12.2637L36.7312 12.8362L37.0354 12.8909L37.7361 12.5388L37.8745 11.7681L37.3379 11.1956L37.0354 11.1409ZM43.1604 11.1409L42.458 11.4912L42.3213 12.2637L42.8562 12.8362L43.1604 12.8909L43.8611 12.5388L43.9995 11.7681L43.4629 11.1956L43.1604 11.1409ZM25.7339 12.8396L25.0332 13.1917L24.8948 13.9624L25.4297 14.5349L25.7339 14.5896L26.4346 14.2393L26.573 13.4668L26.0381 12.8943L25.7339 12.8396ZM32.7339 12.8396L32.0332 13.1917L31.8948 13.9624L32.4297 14.5349L32.7339 14.5896L33.4346 14.2393L33.573 13.4668L33.0381 12.8943L32.7339 12.8396ZM39.7339 12.8396L39.0332 13.1917L38.8948 13.9624L39.4297 14.5349L39.7339 14.5896L40.4346 14.2393L40.573 13.4668L40.0381 12.8943L39.7339 12.8396ZM45.8589 12.8396L45.1582 13.1917L45.0198 13.9624L45.5547 14.5349L45.8589 14.5896L46.5596 14.2393L46.698 13.4668L46.1631 12.8943L45.8589 12.8396ZM26.8772 15.8542L26.1748 16.2063L26.0381 16.9771L26.573 17.5496L26.8772 17.6042L27.5779 17.2539L27.7163 16.4814L27.1797 15.9089L26.8772 15.8542ZM33.8772 15.8542L33.1748 16.2063L33.0381 16.9771L33.573 17.5496L33.8772 17.6042L34.5779 17.2539L34.7163 16.4814L34.1797 15.9089L33.8772 15.8542ZM40.8772 15.8542L40.1748 16.2063L40.0381 16.9771L40.573 17.5496L40.8772 17.6042L41.5779 17.2539L41.7163 16.4814L41.1797 15.9089L40.8772 15.8542ZM47.0022 15.8542L46.2998 16.2063L46.1631 16.9771L46.698 17.5496L47.0022 17.6042L47.7029 17.2539L47.8413 16.4814L47.3047 15.9089L47.0022 15.8542ZM26.0261 19.2432L25.3254 19.5952L25.187 20.366L25.7236 20.9385L26.0261 20.9932L26.7285 20.6428L26.8652 19.8704L26.3303 19.2979L26.0261 19.2432ZM33.0261 19.2432L32.3254 19.5952L32.187 20.366L32.7236 20.9385L33.0261 20.9932L33.7285 20.6428L33.8652 19.8704L33.3303 19.2979L33.0261 19.2432ZM40.0261 19.2432L39.3254 19.5952L39.187 20.366L39.7236 20.9385L40.0261 20.9932L40.7285 20.6428L40.8652 19.8704L40.3303 19.2979L40.0261 19.2432ZM46.1511 19.2432L45.4504 19.5952L45.312 20.366L45.8486 20.9385L46.1511 20.9932L46.8535 20.6428L46.9902 19.8704L46.4553 19.2979L46.1511 19.2432ZM19.6875 23.449L19.2021 23.772C19.2021 23.772 18.1702 24.4584 17.1274 25.4143C16.0847 26.3702 14.875 27.526 14.875 29.0938V31.5H12.9507C12.0717 31.5 11.375 32.2484 11.375 33.1047V36.022C11.375 36.8785 12.0717 37.625 12.9507 37.625H14.875V44.1875V49.875H12.9507C12.0717 49.875 11.375 50.6234 11.375 51.4797V54.397C11.375 55.2535 12.0717 56 12.9507 56H14.875V58.4062C14.875 59.974 16.0847 61.1298 17.1274 62.0857C18.1702 63.0416 19.2021 63.728 19.2021 63.728L19.6875 64.051L20.1729 63.728C20.1729 63.728 21.2048 63.0416 22.2476 62.0857C22.7208 61.6519 23.2117 61.1607 23.625 60.6245C24.0383 61.1607 24.5292 61.6519 25.0024 62.0857C26.0452 63.0416 27.0771 63.728 27.0771 63.728L27.5625 64.051L28.0479 63.728C28.0479 63.728 29.0798 63.0416 30.1226 62.0857C30.5958 61.6519 31.0867 61.1607 31.5 60.6245C31.9133 61.1607 32.4042 61.6519 32.8774 62.0857C33.9202 63.0416 34.9521 63.728 34.9521 63.728L35.4375 64.051L35.9229 63.728C35.9229 63.728 36.9548 63.0416 37.9976 62.0857C38.4708 61.6519 38.9617 61.1607 39.375 60.6245C39.7883 61.1607 40.2792 61.6519 40.7524 62.0857C41.7952 63.0416 42.8271 63.728 42.8271 63.728L43.3125 64.051L43.7979 63.728C43.7979 63.728 44.8298 63.0416 45.8726 62.0857C46.3458 61.6519 46.8367 61.1607 47.25 60.6245C47.6633 61.1607 48.1542 61.6519 48.6274 62.0857C49.6702 63.0416 50.7021 63.728 50.7021 63.728L51.1875 64.051L51.6729 63.728C51.6729 63.728 52.7048 63.0416 53.7476 62.0857C54.7903 61.1298 56 59.974 56 58.4062V56H57.75C57.8659 56.0016 57.9811 55.9802 58.0887 55.937C58.1963 55.8937 58.2942 55.8296 58.3768 55.7481C58.4593 55.6667 58.5249 55.5697 58.5697 55.4627C58.6144 55.3558 58.6375 55.241 58.6375 55.125C58.6375 55.009 58.6144 54.8942 58.5697 54.7873C58.5249 54.6803 58.4593 54.5833 58.3768 54.5019C58.2942 54.4204 58.1963 54.3563 58.0887 54.313C57.9811 54.2698 57.8659 54.2484 57.75 54.25H56V51.625H57.75C57.8659 51.6266 57.9811 51.6052 58.0887 51.562C58.1963 51.5187 58.2942 51.4546 58.3768 51.3731C58.4593 51.2917 58.5249 51.1947 58.5697 51.0877C58.6144 50.9808 58.6375 50.866 58.6375 50.75C58.6375 50.634 58.6144 50.5192 58.5697 50.4123C58.5249 50.3053 58.4593 50.2083 58.3768 50.1269C58.2942 50.0454 58.1963 49.9813 58.0887 49.938C57.9811 49.8948 57.8659 49.8734 57.75 49.875H56V44.1875V37.625H57.75C57.8659 37.6266 57.9811 37.6052 58.0887 37.562C58.1963 37.5187 58.2942 37.4546 58.3768 37.3731C58.4593 37.2917 58.5249 37.1947 58.5697 37.0877C58.6144 36.9808 58.6375 36.866 58.6375 36.75C58.6375 36.634 58.6144 36.5192 58.5697 36.4123C58.5249 36.3053 58.4593 36.2083 58.3768 36.1269C58.2942 36.0454 58.1963 35.9813 58.0887 35.938C57.9811 35.8948 57.8659 35.8734 57.75 35.875H56V33.25H57.75C57.8659 33.2516 57.9811 33.2302 58.0887 33.187C58.1963 33.1437 58.2942 33.0796 58.3768 32.9981C58.4593 32.9167 58.5249 32.8197 58.5697 32.7127C58.6144 32.6058 58.6375 32.491 58.6375 32.375C58.6375 32.259 58.6144 32.1442 58.5697 32.0373C58.5249 31.9303 58.4593 31.8333 58.3768 31.7519C58.2942 31.6704 58.1963 31.6063 58.0887 31.563C57.9811 31.5198 57.8659 31.4984 57.75 31.5H56V29.0938C56 27.526 54.7903 26.3702 53.7476 25.4143C52.7048 24.4584 51.6729 23.772 51.6729 23.772L51.1875 23.449L50.7021 23.772C50.7021 23.772 49.6702 24.4584 48.6274 25.4143C48.1542 25.8481 47.6633 26.3393 47.25 26.8755C46.8367 26.3393 46.3458 25.8481 45.8726 25.4143C44.8298 24.4584 43.7979 23.772 43.7979 23.772L43.3125 23.449L42.8271 23.772C42.8271 23.772 41.8677 24.4103 40.8669 25.3101C40.3543 25.771 39.8059 26.2825 39.3647 26.8669C38.9598 26.3298 38.4695 25.8469 37.9976 25.4143C36.9548 24.4584 35.9229 23.772 35.9229 23.772L35.4375 23.449L34.9521 23.772C34.9521 23.772 33.9202 24.4584 32.8774 25.4143C32.4037 25.8486 31.8999 26.3268 31.4863 26.8635C31.0819 26.3279 30.5934 25.8459 30.1226 25.4143C29.0798 24.4584 28.0479 23.772 28.0479 23.772L27.5625 23.449L27.0771 23.772C27.0771 23.772 26.0452 24.4584 25.0024 25.4143C24.5292 25.8481 24.0383 26.3393 23.625 26.8755C23.2117 26.3393 22.7208 25.8481 22.2476 25.4143C21.2048 24.4584 20.1729 23.772 20.1729 23.772L19.6875 23.449ZM43.3108 25.6108C43.6237 25.8316 44.0044 26.0744 44.6899 26.7029C45.6159 27.5517 46.375 28.6927 46.375 29.0938H48.125C48.125 28.6927 48.8841 27.5517 49.8101 26.7029C50.4947 26.0753 50.874 25.8338 51.1875 25.6125C51.501 25.8338 51.8803 26.0753 52.5649 26.7029C53.4909 27.5517 54.25 28.6927 54.25 29.0938V31.5V37.625V44.1875V49.875V56V58.4062C54.25 58.8073 53.4909 59.9483 52.5649 60.7971C51.8803 61.4247 51.501 61.6662 51.1875 61.8875C50.874 61.6662 50.4947 61.4247 49.8101 60.7971C48.8841 59.9483 48.125 58.8073 48.125 58.4062H46.375C46.375 58.8073 45.6159 59.9483 44.6899 60.7971C44.0053 61.4247 43.626 61.6662 43.3125 61.8875C42.999 61.6662 42.6197 61.4247 41.9351 60.7971C41.0091 59.9483 40.25 58.8073 40.25 58.4062H38.5C38.5 58.8073 37.7409 59.9483 36.8149 60.7971C36.1303 61.4247 35.751 61.6662 35.4375 61.8875C35.124 61.6662 34.7447 61.4247 34.0601 60.7971C33.1341 59.9483 32.375 58.8073 32.375 58.4062H30.625C30.625 58.8073 29.8659 59.9483 28.9399 60.7971C28.2553 61.4247 27.876 61.6662 27.5625 61.8875C27.249 61.6662 26.8697 61.4247 26.1851 60.7971C25.2591 59.9483 24.5 58.8073 24.5 58.4062H22.75C22.75 58.8073 21.9909 59.9483 21.0649 60.7971C20.3803 61.4247 20.001 61.6662 19.6875 61.8875C19.374 61.6662 18.9947 61.4247 18.3101 60.7971C17.3841 59.9483 16.625 58.8073 16.625 58.4062V44.1875V29.0938C16.625 28.6927 17.3841 27.5517 18.3101 26.7029C18.9947 26.0753 19.374 25.8338 19.6875 25.6125C20.001 25.8338 20.3803 26.0753 21.0649 26.7029C21.9909 27.5517 22.75 28.6927 22.75 29.0938H24.5C24.5 28.6927 25.2591 27.5517 26.1851 26.7029C26.8697 26.0753 27.249 25.8338 27.5625 25.6125C27.876 25.8338 28.2553 26.0753 28.9399 26.7029C29.8659 27.5517 30.625 28.6927 30.625 29.0938H32.375C32.375 28.6927 33.1341 27.5517 34.0601 26.7029C34.7447 26.0753 35.124 25.8338 35.4375 25.6125C35.751 25.8338 36.1303 26.0753 36.8149 26.7029C37.7409 27.5517 38.5 28.6927 38.5 29.0938H40.25C40.25 29.0647 40.2521 29.0311 40.2568 28.998L40.2141 28.9912C40.2141 28.9906 40.2141 28.9901 40.2141 28.9895L40.2568 28.9946C40.3237 28.5102 41.1444 27.4136 42.0376 26.6106C42.6836 26.0298 43.0101 25.8233 43.3108 25.6108ZM23.625 30.625L22.9243 30.9771L22.7859 31.7478L23.3208 32.3203L23.625 32.375L24.3257 32.0229L24.4641 31.2522L23.9292 30.6797L23.625 30.625ZM31.5 30.625L30.7993 30.9771L30.6609 31.7478L31.1958 32.3203L31.5 32.375L32.2007 32.0229L32.3391 31.2522L31.8042 30.6797L31.5 30.625ZM39.375 30.625L38.6743 30.9771L38.5359 31.7478L39.0708 32.3203L39.375 32.375L40.0757 32.0229L40.2141 31.2522L39.6792 30.6797L39.375 30.625ZM47.25 30.625L46.5493 30.9771L46.4109 31.7478L46.9458 32.3203L47.25 32.375L47.9507 32.0229L48.0891 31.2522L47.5542 30.6797L47.25 30.625ZM61.25 31.5C61.0179 31.5 60.7954 31.5922 60.6313 31.7563C60.4672 31.9204 60.375 32.1429 60.375 32.375C60.375 32.6071 60.4672 32.8296 60.6313 32.9937C60.7954 33.1578 61.0179 33.25 61.25 33.25C61.4821 33.25 61.7046 33.1578 61.8687 32.9937C62.0328 32.8296 62.125 32.6071 62.125 32.375C62.125 32.1429 62.0328 31.9204 61.8687 31.7563C61.7046 31.5922 61.4821 31.5 61.25 31.5ZM13.125 33.25H14.875V35.875H13.125V33.25ZM23.625 34.125L22.9243 34.4771L22.7859 35.2478L23.3208 35.8203L23.625 35.875L24.3257 35.5229L24.4641 34.7522L23.9292 34.1797L23.625 34.125ZM31.5 34.125L30.7993 34.4771L30.6609 35.2478L31.1958 35.8203L31.5 35.875L32.2007 35.5229L32.3391 34.7522L31.8042 34.1797L31.5 34.125ZM39.375 34.125L38.6743 34.4771L38.5359 35.2478L39.0708 35.8203L39.375 35.875L40.0757 35.5229L40.2141 34.7522L39.6792 34.1797L39.375 34.125ZM47.25 34.125L46.5493 34.4771L46.4109 35.2478L46.9458 35.8203L47.25 35.875L47.9507 35.5229L48.0891 34.7522L47.5542 34.1797L47.25 34.125ZM61.25 35.875C61.0179 35.875 60.7954 35.9672 60.6313 36.1313C60.4672 36.2954 60.375 36.5179 60.375 36.75C60.375 36.9821 60.4672 37.2046 60.6313 37.3687C60.7954 37.5328 61.0179 37.625 61.25 37.625C61.4821 37.625 61.7046 37.5328 61.8687 37.3687C62.0328 37.2046 62.125 36.9821 62.125 36.75C62.125 36.5179 62.0328 36.2954 61.8687 36.1313C61.7046 35.9672 61.4821 35.875 61.25 35.875ZM23.625 37.625L22.9243 37.9771L22.7859 38.7478L23.3208 39.3203L23.625 39.375L24.3257 39.0229L24.4641 38.2522L23.9292 37.6797L23.625 37.625ZM31.5 37.625L30.7993 37.9771L30.6609 38.7478L31.1958 39.3203L31.5 39.375L32.2007 39.0229L32.3391 38.2522L31.8042 37.6797L31.5 37.625ZM39.375 37.625L38.6743 37.9771L38.5359 38.7478L39.0708 39.3203L39.375 39.375L40.0757 39.0229L40.2141 38.2522L39.6792 37.6797L39.375 37.625ZM47.25 37.625L46.5493 37.9771L46.4109 38.7478L46.9458 39.3203L47.25 39.375L47.9507 39.0229L48.0891 38.2522L47.5542 37.6797L47.25 37.625ZM23.625 41.125L22.9243 41.4771L22.7859 42.2478L23.3208 42.8203L23.625 42.875L24.3257 42.5229L24.4641 41.7522L23.9292 41.1797L23.625 41.125ZM31.5 41.125L30.7993 41.4771L30.6609 42.2478L31.1958 42.8203L31.5 42.875L32.2007 42.5229L32.3391 41.7522L31.8042 41.1797L31.5 41.125ZM39.375 41.125L38.6743 41.4771L38.5359 42.2478L39.0708 42.8203L39.375 42.875L40.0757 42.5229L40.2141 41.7522L39.6792 41.1797L39.375 41.125ZM47.25 41.125L46.5493 41.4771L46.4109 42.2478L46.9458 42.8203L47.25 42.875L47.9507 42.5229L48.0891 41.7522L47.5542 41.1797L47.25 41.125ZM23.625 44.625L22.9243 44.9771L22.7859 45.7478L23.3208 46.3203L23.625 46.375L24.3257 46.0229L24.4641 45.2522L23.9292 44.6797L23.625 44.625ZM31.5 44.625L30.7993 44.9771L30.6609 45.7478L31.1958 46.3203L31.5 46.375L32.2007 46.0229L32.3391 45.2522L31.8042 44.6797L31.5 44.625ZM39.375 44.625L38.6743 44.9771L38.5359 45.7478L39.0708 46.3203L39.375 46.375L40.0757 46.0229L40.2141 45.2522L39.6792 44.6797L39.375 44.625ZM47.25 44.625L46.5493 44.9771L46.4109 45.7478L46.9458 46.3203L47.25 46.375L47.9507 46.0229L48.0891 45.2522L47.5542 44.6797L47.25 44.625ZM23.625 48.125L22.9243 48.4771L22.7859 49.2478L23.3208 49.8203L23.625 49.875L24.3257 49.5229L24.4641 48.7522L23.9292 48.1797L23.625 48.125ZM31.5 48.125L30.7993 48.4771L30.6609 49.2478L31.1958 49.8203L31.5 49.875L32.2007 49.5229L32.3391 48.7522L31.8042 48.1797L31.5 48.125ZM39.375 48.125L38.6743 48.4771L38.5359 49.2478L39.0708 49.8203L39.375 49.875L40.0757 49.5229L40.2141 48.7522L39.6792 48.1797L39.375 48.125ZM47.25 48.125L46.5493 48.4771L46.4109 49.2478L46.9458 49.8203L47.25 49.875L47.9507 49.5229L48.0891 48.7522L47.5542 48.1797L47.25 48.125ZM61.25 49.875C61.0179 49.875 60.7954 49.9672 60.6313 50.1313C60.4672 50.2954 60.375 50.5179 60.375 50.75C60.375 50.9821 60.4672 51.2046 60.6313 51.3687C60.7954 51.5328 61.0179 51.625 61.25 51.625C61.4821 51.625 61.7046 51.5328 61.8687 51.3687C62.0328 51.2046 62.125 50.9821 62.125 50.75C62.125 50.5179 62.0328 50.2954 61.8687 50.1313C61.7046 49.9672 61.4821 49.875 61.25 49.875ZM13.125 51.625H14.875V54.25H13.125V51.625ZM23.625 51.625L22.9243 51.9771L22.7859 52.7478L23.3208 53.3203L23.625 53.375L24.3257 53.0229L24.4641 52.2522L23.9292 51.6797L23.625 51.625ZM31.5 51.625L30.7993 51.9771L30.6609 52.7478L31.1958 53.3203L31.5 53.375L32.2007 53.0229L32.3391 52.2522L31.8042 51.6797L31.5 51.625ZM39.375 51.625L38.6743 51.9771L38.5359 52.7478L39.0708 53.3203L39.375 53.375L40.0757 53.0229L40.2141 52.2522L39.6792 51.6797L39.375 51.625ZM47.25 51.625L46.5493 51.9771L46.4109 52.7478L46.9458 53.3203L47.25 53.375L47.9507 53.0229L48.0891 52.2522L47.5542 51.6797L47.25 51.625ZM61.25 54.25C61.0179 54.25 60.7954 54.3422 60.6313 54.5063C60.4672 54.6704 60.375 54.8929 60.375 55.125C60.375 55.3571 60.4672 55.5796 60.6313 55.7437C60.7954 55.9078 61.0179 56 61.25 56C61.4821 56 61.7046 55.9078 61.8687 55.7437C62.0328 55.5796 62.125 55.3571 62.125 55.125C62.125 54.8929 62.0328 54.6704 61.8687 54.5063C61.7046 54.3422 61.4821 54.25 61.25 54.25ZM23.625 55.125L22.9243 55.4771L22.7859 56.2478L23.3208 56.8203L23.625 56.875L24.3257 56.5229L24.4641 55.7522L23.9292 55.1797L23.625 55.125ZM31.5 55.125L30.7993 55.4771L30.6609 56.2478L31.1958 56.8203L31.5 56.875L32.2007 56.5229L32.3391 55.7522L31.8042 55.1797L31.5 55.125ZM39.375 55.125L38.6743 55.4771L38.5359 56.2478L39.0708 56.8203L39.375 56.875L40.0757 56.5229L40.2141 55.7522L39.6792 55.1797L39.375 55.125ZM47.25 55.125L46.5493 55.4771L46.4109 56.2478L46.9458 56.8203L47.25 56.875L47.9507 56.5229L48.0891 55.7522L47.5542 55.1797L47.25 55.125Z" fill="#E4B564"/>
</svg>

<svg width="70" height="70" fill="none" xmlns="http://www.w3.org/2000/svg"><path d="M24.5 4.375l-.7.352-.14.77.536.573.304.055.7-.352.14-.77-.536-.573-.304-.055zm7 0l-.7.352-.14.77.536.573.304.055.7-.352.14-.77-.536-.573-.304-.055zm7 0l-.7.352-.14.77.536.573.304.055.7-.352.14-.77-.536-.573-.304-.055zm6.125 0l-.7.352-.14.77.536.573.304.055.7-.352.14-.77-.536-.573-.304-.055zM23.374 7.687l-.7.35-.14.773.536.572.304.055.7-.352.139-.773-.535-.572-.304-.053zm7 0l-.7.35-.14.773.536.572.304.055.7-.352.139-.773-.535-.572-.304-.053zm7 0l-.7.35-.14.773.536.572.304.055.7-.352.139-.773-.535-.572-.304-.053zm6.125 0l-.7.35-.14.773.536.572.304.055.7-.352.139-.773-.535-.572-.304-.053zm-20.464 3.454l-.702.35-.137.773.535.572.304.055.701-.352.139-.77-.537-.573-.303-.055zm7 0l-.702.35-.137.773.535.572.304.055.701-.352.139-.77-.537-.573-.303-.055zm7 0l-.702.35-.137.773.535.572.304.055.701-.352.139-.77-.537-.573-.303-.055zm6.125 0l-.702.35-.137.773.535.572.304.055.701-.352.139-.77-.537-.573-.303-.055zM25.734 12.84l-.7.352-.14.77.536.573.304.055.7-.35.139-.773-.535-.573-.304-.054zm7 0l-.7.352-.14.77.536.573.304.055.7-.35.139-.773-.535-.573-.304-.054zm7 0l-.7.352-.14.77.536.573.304.055.7-.35.139-.773-.535-.573-.304-.054zm6.125 0l-.7.352-.14.77.536.573.304.055.7-.35.139-.773-.535-.573-.304-.054zm-18.982 3.014l-.702.352-.137.771.535.573.304.054.7-.35.14-.773-.537-.572-.303-.055zm7 0l-.702.352-.137.771.535.573.304.054.7-.35.14-.773-.537-.572-.303-.055zm7 0l-.702.352-.137.771.535.573.304.054.7-.35.14-.773-.537-.572-.303-.055zm6.125 0l-.702.352-.137.771.535.573.304.054.7-.35.14-.773-.537-.572-.303-.055zm-20.976 3.39l-.7.351-.139.771.537.573.302.054.703-.35.136-.773-.535-.572-.304-.055zm7 0l-.7.351-.139.771.537.573.302.054.702-.35.137-.773-.535-.572-.304-.055zm7 0l-.7.351-.139.771.537.573.302.054.702-.35.137-.773-.535-.572-.304-.055zm6.125 0l-.7.351-.139.771.537.573.302.054.702-.35.137-.773-.535-.572-.304-.055zm-26.464 4.205l-.485.323s-1.032.686-2.075 1.642c-1.042.956-2.252 2.112-2.252 3.68V31.5h-1.924c-.88 0-1.576.748-1.576 1.605v2.917c0 .857.697 1.603 1.576 1.603h1.924v12.25h-1.924c-.88 0-1.576.748-1.576 1.605v2.917c0 .857.697 1.603 1.576 1.603h1.924v2.406c0 1.568 1.21 2.724 2.252 3.68a19.197 19.197 0 002.075 1.642l.485.323.486-.323s1.032-.686 2.075-1.642c.473-.434.964-.925 1.377-1.462.413.537.904 1.028 1.377 1.462a19.197 19.197 0 002.075 1.642l.485.323.486-.323s1.032-.686 2.075-1.642c.473-.434.964-.925 1.377-1.462.413.537.904 1.028 1.377 1.462a19.197 19.197 0 002.075 1.642l.486.323.485-.323s1.032-.686 2.075-1.642c.473-.434.964-.925 1.377-1.462.413.537.904 1.028 1.377 1.462a19.197 19.197 0 002.075 1.642l.486.323.485-.323s1.032-.686 2.075-1.642c.473-.434.964-.925 1.377-1.462.413.537.904 1.028 1.377 1.462a19.197 19.197 0 002.075 1.642l.486.323.485-.323s1.032-.686 2.075-1.642C54.79 61.13 56 59.974 56 58.406V56h1.75a.877.877 0 00.82-1.213.877.877 0 00-.82-.537H56v-2.625h1.75a.877.877 0 00.82-1.213.877.877 0 00-.82-.537H56v-12.25h1.75a.877.877 0 00.82-1.213.877.877 0 00-.82-.537H56V33.25h1.75a.877.877 0 00.82-1.213.877.877 0 00-.82-.537H56v-2.406c0-1.568-1.21-2.724-2.252-3.68-1.043-.956-2.075-1.642-2.075-1.642l-.486-.323-.485.323s-1.032.686-2.075 1.642c-.473.434-.964.925-1.377 1.461-.413-.536-.904-1.027-1.377-1.46-1.043-.957-2.075-1.643-2.075-1.643l-.486-.323-.485.323s-.96.638-1.96 1.538c-.513.461-1.061.973-1.502 1.557-.405-.537-.896-1.02-1.367-1.453-1.043-.956-2.075-1.642-2.075-1.642l-.486-.323-.485.323s-1.032.686-2.075 1.642c-.473.435-.977.913-1.39 1.45-.405-.536-.894-1.018-1.364-1.45-1.043-.956-2.075-1.642-2.075-1.642l-.485-.323-.486.323s-1.032.686-2.075 1.642c-.473.434-.964.925-1.377 1.461-.413-.536-.904-1.027-1.377-1.46-1.043-.957-2.075-1.643-2.075-1.643l-.485-.323zm23.624 2.162c.313.22.693.463 1.379 1.092.926.849 1.685 1.99 1.685 2.39h1.75c0-.4.76-1.541 1.685-2.39.685-.628 1.064-.87 1.377-1.09.314.22.693.462 1.378 1.09.926.849 1.685 1.99 1.685 2.39v29.313c0 .401-.76 1.542-1.685 2.391-.685.628-1.064.87-1.377 1.09-.314-.22-.693-.462-1.378-1.09-.926-.849-1.685-1.99-1.685-2.39h-1.75c0 .4-.76 1.541-1.685 2.39-.685.628-1.064.87-1.377 1.09-.314-.22-.693-.462-1.378-1.09-.926-.849-1.685-1.99-1.685-2.39H38.5c0 .4-.76 1.541-1.685 2.39-.685.628-1.064.87-1.377 1.09-.314-.22-.693-.462-1.378-1.09-.926-.849-1.685-1.99-1.685-2.39h-1.75c0 .4-.76 1.541-1.685 2.39-.685.628-1.064.87-1.378 1.09-.313-.22-.692-.462-1.377-1.09-.926-.849-1.685-1.99-1.685-2.39h-1.75c0 .4-.76 1.541-1.685 2.39-.685.628-1.064.87-1.378 1.09-.313-.22-.692-.462-1.377-1.09-.926-.849-1.685-1.99-1.685-2.39V29.093c0-.401.76-1.542 1.685-2.391.685-.628 1.064-.87 1.378-1.09.313.22.692.462 1.377 1.09.926.849 1.685 1.99 1.685 2.39h1.75c0-.4.76-1.541 1.685-2.39.685-.628 1.064-.87 1.378-1.09.313.22.692.462 1.377 1.09.926.849 1.685 1.99 1.685 2.39h1.75c0-.4.76-1.541 1.685-2.39.685-.628 1.064-.87 1.377-1.09.314.22.693.462 1.378 1.09.926.849 1.685 1.99 1.685 2.39h1.75c0-.028.002-.062.007-.095l-.043-.007v-.002l.043.006c.067-.485.887-1.581 1.78-2.384.647-.581.973-.788 1.274-1zm-19.686 5.014l-.7.352-.14.77.536.573.304.055.7-.352.14-.77-.536-.573-.304-.055zm7.875 0l-.7.352-.14.77.536.573.304.055.7-.352.14-.77-.536-.573-.304-.055zm7.875 0l-.7.352-.14.77.536.573.304.055.7-.352.14-.77-.536-.573-.304-.055zm7.875 0l-.7.352-.14.77.536.573.304.055.7-.352.14-.77-.536-.573-.304-.055zm14 .875a.875.875 0 100 1.75.875.875 0 000-1.75zm-48.125 1.75h1.75v2.625h-1.75V33.25zm10.5.875l-.7.352-.14.77.536.573.304.055.7-.352.14-.77-.536-.573-.304-.055zm7.875 0l-.7.352-.14.77.536.573.304.055.7-.352.14-.77-.536-.573-.304-.055zm7.875 0l-.7.352-.14.77.536.573.304.055.7-.352.14-.77-.536-.573-.304-.055zm7.875 0l-.7.352-.14.77.536.573.304.055.7-.352.14-.77-.536-.573-.304-.055zm14 1.75a.875.875 0 100 1.75.875.875 0 000-1.75zm-37.625 1.75l-.7.352-.14.77.536.573.304.055.7-.352.14-.77-.536-.573-.304-.055zm7.875 0l-.7.352-.14.77.536.573.304.055.7-.352.14-.77-.536-.573-.304-.055zm7.875 0l-.7.352-.14.77.536.573.304.055.7-.352.14-.77-.536-.573-.304-.055zm7.875 0l-.7.352-.14.77.536.573.304.055.7-.352.14-.77-.536-.573-.304-.055zm-23.625 3.5l-.7.352-.14.77.536.573.304.055.7-.352.14-.77-.536-.573-.304-.055zm7.875 0l-.7.352-.14.77.536.573.304.055.7-.352.14-.77-.536-.573-.304-.055zm7.875 0l-.7.352-.14.77.536.573.304.055.7-.352.14-.77-.536-.573-.304-.055zm7.875 0l-.7.352-.14.77.536.573.304.055.7-.352.14-.77-.536-.573-.304-.055zm-23.625 3.5l-.7.352-.14.77.536.573.304.055.7-.352.14-.77-.536-.573-.304-.055zm7.875 0l-.7.352-.14.77.536.573.304.055.7-.352.14-.77-.536-.573-.304-.055zm7.875 0l-.7.352-.14.77.536.573.304.055.7-.352.14-.77-.536-.573-.304-.055zm7.875 0l-.7.352-.14.77.536.573.304.055.7-.352.14-.77-.536-.573-.304-.055zm-23.625 3.5l-.7.352-.14.77.536.573.304.055.7-.352.14-.77-.536-.573-.304-.055zm7.875 0l-.7.352-.14.77.536.573.304.055.7-.352.14-.77-.536-.573-.304-.055zm7.875 0l-.7.352-.14.77.536.573.304.055.7-.352.14-.77-.536-.573-.304-.055zm7.875 0l-.7.352-.14.77.536.573.304.055.7-.352.14-.77-.536-.573-.304-.055zm14 1.75a.875.875 0 100 1.75.875.875 0 000-1.75zm-48.125 1.75h1.75v2.625h-1.75v-2.625zm10.5 0l-.7.352-.14.77.536.573.304.055.7-.352.14-.77-.536-.573-.304-.055zm7.875 0l-.7.352-.14.77.536.573.304.055.7-.352.14-.77-.536-.573-.304-.055zm7.875 0l-.7.352-.14.77.536.573.304.055.7-.352.14-.77-.536-.573-.304-.055zm7.875 0l-.7.352-.14.77.536.573.304.055.7-.352.14-.77-.536-.573-.304-.055zm14 2.625a.875.875 0 100 1.75.875.875 0 000-1.75zm-37.625.875l-.7.352-.14.77.536.573.304.055.7-.352.14-.77-.536-.573-.304-.055zm7.875 0l-.7.352-.14.77.536.573.304.055.7-.352.14-.77-.536-.573-.304-.055zm7.875 0l-.7.352-.14.77.536.573.304.055.7-.352.14-.77-.536-.573-.304-.055zm7.875 0l-.7.352-.14.77.536.573.304.055.7-.352.14-.77-.536-.573-.304-.055z" fill="#E4B564"/></svg>
